X: 1
T:Danny Boy `Begeleiding Lute
M:4/4
L:1/8
Q:1/4=27
K:Eb
V:2
z4 
[E2-B,2-G,2-] [EEB,B,G,G,][GEB,]|[E2C2A,2] [ECA,][E/2B,/2-][D/2B,/2] [G2D2B,2] [EB,G,][ECA,]|[F-CA,][FEB,] [D2B,2F,2] [E2-B,2-G,2-] [EEB,B,G,G,][GEB,]|[E2C2A,2] [ECA,][EC] [G2D2B,2] [GDB,][FDB,A,]|
[G2E2B,2] [GEB,][ADB,] [G2E2B,2] [AEC][B/2D/2][A/2E/2]|[G2E2B,2] [GEB,][A/2E/2C/2-][B/2A/2D/2C/2] [G2E2B,2] [AEC][GDB,]|[FCA,][ECA,] [DB,A,][AFD] [GEB,][GDB,] [AEB,][AEC]|[GEB,][BGE] [A-E-C-][B/2A/2-E/2-C/2-][A/2A/2E/2C/2] [GEB,][GEC] [AEB,][AEC]|
[G2-E2-B,2-] [G2G2E2E2B,2B,2] [E2-B,2-G,2-] [EEB,B,G,G,][GEB,]|[E2C2A,2] [ECA,][E/2B,/2-][D/2B,/2] [G2D2B,2] [EB,G,][ECA,]|[F-CA,][FEB,] [D2B,2F,2] [E2-B,2-G,2-] [EEB,B,G,G,][GEB,]|[E2C2A,2] [ECA,][EC] [G2D2B,2] [GDB,][FDB,A,]|
[G2E2B,2] [GEB,][ADB,] [G2E2B,2] [AEC][B/2D/2][A/2E/2]|[G2E2B,2] [GEB,][A/2E/2C/2-][B/2A/2D/2C/2] [G2E2B,2] [AEC][GDB,]|[FCA,][ECA,] [DB,A,][AFD] [GEB,][GDB,] [AEB,][AEC]|[GEB,][BGE] [A-E-C-][B/2A/2-E/2-C/2-][A/2A/2E/2C/2] [GEB,][GEC] [AEB,][AEC]|
[G2-E2-B,2-] [A-G-E-E-C-B,-][B/2A/2-G/2-E/2-E/2-C/2-B,/2-][A/2A/2G/2E/2E/2C/2B,/2] [GEB,][GEC] [A2E2C2]|[A2E2C2] [B2F2D2] [B4-G4-E4-]|[B3B3G3G3E3E3]
